X:17
T:Plantons la vigne
R:
S:
N: - p. 46
N:
B:Deutsch-Franzsisches Liederbuch
O:Champagne
A:Chlons sur Marne
Z:<anamnese@laposte.net>
M:2/4
L:1/8
Q:1/4=130
K:D
A2 AA | B2 B B/c/ | dd dc | B2 AA | FA EA | DD D |: D/E/ |
FF AF |1 EE D :|2 ED |]
